!!!!SEGMENT: pl-kk--kk-i-487--010_anonim--archaniol-bozy-gabryel.krn
!!!cenid: 18xx:1365
!!!COM: Anonim
!!!COM-rismID:
!!!CDT:
!!!CNT:
!!!OTL: Archanioł Boży Gabryel
!!!PDT:
!!!AGN: Sacred
!!!SMS-siglum: PL-Kk
!!!SMS-shelfmark: Kk.I.487
!!!SMS-shelfwork: 010 W
!!!SMS-variant:
!!!SMS-altvar:
!!!NIFC-rismSourceID: 1001141056
!!!NIFC-islandoraID: pl-kk:14481
!!!URL-pdf-islandora: https://repozytorium.nifc.pl/islandora/object/pl-kk%3A14481/datastream/PDF/view
!!!URL-scan: https://polish.musicsources.pl/pl/lokalizacje/galeria/rekopisy/6094 @EN{Scan on Polish Music Herritage in Open Access Website} @PL{Skany w portalu Dziedzictwo Muzyki Polskiej w otwartym dostępie}
!!!ONB-nifc:
!!!AIN: 1 alto 1 empty 1 soprn 1 tenor
!!!key:
**kern	**text	**text	**kern	**text	**text	**kern	**text	**text	**kern	**text	**text
*part4	*part4	*part4	*part3	*part3	*part3	*part2	*part2	*part2	*part1	*part1	*part1
*staff4	*staff4	*staff4	*staff3	*staff3	*staff3	*staff2	*staff2	*staff2	*staff1	*staff1	*staff1
*Iempty	*	*	*Itenor	*	*	*Ialto	*	*	*Isoprn	*	*
*I"Bas	*	*	*I"Tenor.	*	*	*I"alt.	*	*	*I"Sopran	*	*
*I'B	*	*	*I'T	*	*	*I'A	*	*	*I'S	*	*
*clefF4	*	*	*clefC4	*	*	*clefC3	*	*	*clefC1	*	*
*k[f#c#g#d#]	*	*	*k[f#c#g#d#]	*	*	*k[f#c#g#d#]	*	*	*k[f#c#g#d#]	*	*
*E:	*	*	*E:	*	*	*E:	*	*	*E:	*	*
*M3/4	*	*	*M3/4	*	*	*M3/4	*	*	*M3/4	*	*
=1	=1	=1	=1	=1	=1	=1	=1	=1	=1	=1	=1
*2\right	*	*	*2\right	*	*	*2\right	*	*	*2\right	*	*
!LO:TX:t=P:problem=all\right&colon; global	!	!	!LO:TX:t=P:problem=all\right&colon; global	!	!	!LO:TX:t=P:problem=all\right&colon; global	!	!	!LO:TX:t=P:problem=all\right&colon; global	!	!
!LO:TX:a:t=10.)	!	!	!LO:TX:a:t=10.	!	!	!LO:TX:a:t=10.	!	!	!LO:TX:a:t=10.	!	!
!LO:TX:t=P::problem=oznaczenie numeru utworu&colon; "10.)" przed kluczem	!	!	!LO:TX:t=P::problem=oznaczenie numeru utworu&colon; "10." przed kluczem	!	!	!LO:TX:t=P::problem=oznaczenie numeru utworu&colon; "10." przed kluczem	!	!	!LO:TX:t=P::problem=oznaczenie numeru utworu&colon; "10." przed kluczem	!	!
!	!	!	!	!	!	!	!	!	!LO:TX:t=P::problem=znaki przykluczowe&colon;f#, cc#, g#, dd#	!	!
8E\	Ar-	Pan-	8G#/	Ar-	Pa-	8e\	Ar-	Pan-	8e/	Ar-	Pan-
8E\	-cha-	-na	8B\	-cha-	-na	8e\	-cha-	-na	8g#\	-cha-	-na
4E\	-njoł	się	4G#/	-nioł	się	4e\	-nioł	się	4b\	-nioł	się
4E\	Bo-	wiel-	4G#/	Bo-	wiel-	4e\	Bo-	wiel-	4b\	Bo-	wiel-
=2	=2	=2	=2	=2	=2	=2	=2	=2	=2	=2	=2
8AA/	-ży	-ce	8c#\	-ży	-ce	8e\	-ży	-ce	8ee\	-ży	-ce
8C#/	Ga-	zdu-	8A\	Ga-	zdu-	8e\	Ga-	zdu-	8cc#\	Ga-	zdu-
4E\	-bry-	-mia-	4G#/	-bry-	-mia-	4e\	-bry-	-mia-	4b\	-bry-	-mia-
8E\	-el	-ła	8G#/	-el	-ła	8e\	-el	-ła	8b\	-el	-ła
8r	.	.	8r	.	.	8r	.	.	8r	.	.
=3	=3	=3	=3	=3	=3	=3	=3	=3	=3	=3	=3
8A\	po-	z po-	8A\	po-	z po-	8e\	po-	z po-	8cc#\	po-	z po-
8G#\	-słan	-sel-	8B\	-słan	-sel-	8e\	-słan	-sel-	8b\	-słan	-sel-
4F#\	do	-stwa	4B\	do	-stwa	(>8e\L	do	-stwa	4a\	do	-stwa
.	.	.	.	.	.	8d#\J)	.	.	.	.	.
4E\	Pan-	kto-	4B\	Pan-	któ-	4e\	Pan-	kto-	4g#\	Pan-	kto-
=4	=4	=4	=4	=4	=4	=4	=4	=4	=4	=4	=4
8BB/	-ny	-re	8G#/	-ny	-re	8e\	-ny	-re	8b\	-ny	-re
8BB/	Ma-	sły-	8B\	Ma-	sły-	8e\	Ma-	sły-	8g#\	Ma-	sły-
4BB/	-ry-	-sza-	4A\	-ry-	-sza-	4d#\	-ry-	-sza-	4f#/	-ry-	-sza-
8E\	-jej	-ła.	8G#/	-jej	-ła	8e\	-jej	-ła	8e/	-jej	-ła
8r	.	.	8r	.	.	8r	.	.	8r	.	.
!LO:LB:g=original	!	!	!LO:LB:g=original	!	!	!LO:LB:g=original	!	!	!LO:LB:g=original	!	!
=5	=5	=5	=5	=5	=5	=5	=5	=5	=5	=5	=5
8E\	z Ma-	po-	8B\	z Ma-	po-	8e\	z Ma-	po-	8g#\	z Ma-	po-
8A\	-je-	-kor-	8B\	-je-	-kor-	8d#\	-je-	-kor-	8f#/	-je-	-kor-
4A\	-sta-	-niu-	4B\	-sta-	-niu-	4d#\	-sta-	-niu-	4f#/	-sta-	-niu-
4G#\	-tu	-cho	4B\	-tu	-chno	4e\	-tu	-chno	4g#\	-tu	-chno
=6	=6	=6	=6	=6	=6	=6	=6	=6	=6	=6	=6
8F#\	Troj-	się	8B\	Troj-	się	8d#\	Tro-	się	8a\	Troj-	się
8F#\	-cy	skło-	8B\	-cy	skło-	8d#\	-cy	skło-	8a\	-cy	skło-
4E\	swię-	-ni-	4B\	swię-	-ni-	4e\	swię-	-ni-	4g#\	swię-	-ni-
8BB/	-tej	-ła	8B\	-tej	-ła	8d#\	-tej	-ła	8f#/	-tej	-ła
8r	.	.	8r	.	.	8r	.	.	8r	.	.
=7	=7	=7	=7	=7	=7	=7	=7	=7	=7	=7	=7
8E\	tak	ja-	8B\	tak	ja-	8e\	tak	ja-	8g#\	tak	ja-
8BB#X/	spra-	-ko	8A\	spra-	-ko	8d#\	spra-	-ko	8f#/	spra-	-ko
4C#/	-wo-	Pan-	4G#/	-wo-	pan-	4e\	-wo-	Pan-	4e/	-wo-	Pan-
4C#/	-wał	-na	4G#/	-wał	-na	4e\	-wał	-na	4e/	-wał	-na
=8	=8	=8	=8	=8	=8	=8	=8	=8	=8	=8	=8
8F#\	po-	szo-	8F#/	po-	sro-	8c#\	po-	sro-	8a\	po-	sro-
8F#\	-sel-	-mje-	8A\	-sel-	-mie-	8c#\	-sel-	-mie-	8a\	-sel-	-mie-
4BB/	-stwo	-żli-	4B\	-stwo	-zli-	4e\	-stwo	-źli-	4g#\	-stwo	-żli-
8BB/	knjej	-wa	8B\	kniej	-wa	8d#\	knjej	-wa	8f#/	knjej	-wa
8r	.	.	8r	.	.	8r	.	.	8r	.	.
!LO:LB:g=original	!	!	!LO:LB:g=original	!	!	!LO:LB:g=original	!	!	!LO:LB:g=original	!	!
=9	=9	=9	=9	=9	=9	=9	=9	=9	=9	=9	=9
8E\	zdro-	za-	8G#/	zdro-	za-	8e\	zdro-	za-	8e/	zdro-	za-
8E\	-waś	-smu-	8B\	-waś	-smu-	8e\	-waś	-smu-	8g#\	-waś	-smu-
4E\	Pan-	-ci-	4G#/	Pan-	-ci-	4e\	Pan-	-ci-	4b\	Pan-	-ci-
4Dn\	-no	-ła	4G#/	-no	-ła	4e\	-no	-ła	4b\	-no	-ła
=10	=10	=10	=10	=10	=10	=10	=10	=10	=10	=10	=10
8C#/	łas-	się	8A\	łas-	się	8e\	łas-	się	8ee\	łas-	się
8AA/	-ki	z tej	8A\	-ki	z tej	8e\	-ki	z tej	8cc#\	-ki	z tej
4E\	peł-	mo-	4G#/	peł-	mo-	4e\	peł-	mo-	4b\	peł-	mo-
8E\	-na	-wy	8G#/	-na	-wy	8e\	-na	-wy	8b\	-na	-wy
8r	.	.	8r	.	.	8r	.	.	8r	.	.
=11	=11	=11	=11	=11	=11	=11	=11	=11	=11	=11	=11
8E#X\	Pan	nic	8G#/	Pan	nic	8c#\	Pan	nic	8cc#\	Pan	nic
8E#\	jest	nie	8G#/	jest	nie	8c#\	jest	nie	8b\	jest	nie
4F#\	z To-	rze-	4A\	z To-	rze-	4c#\	z To-	rze-	4a\	z To-	rze-
4C#/	-bą	-kła	4c#\	-bą	-kła	4en\	-bą	-kła	4g#\	-bą	-kła
=12	=12	=12	=12	=12	=12	=12	=12	=12	=12	=12	=12
8BB/	to	A-	8G#/	to	A-	8e\	to	A-	8b\	to	A-
8BB/	rzecz	-njo-	8B\	rzecz	-nio-	8e\	rzecz	-nio-	8g#\	rzecz	-nio-
4BB/	pew-	-ło-	4A\	pew-	-ło-	4d#\	pew-	-ło-	4f#/	pew-	-ło-
8E\	-na	-wi	8G#/	-na	-wi	8e\	-na	-wi	8e/	-na	-wi
8r	.	.	8r	.	.	8r	.	.	8r	.	.
==	==	==	==	==	==	==	==	==	==	==	==
*-	*-	*-	*-	*-	*-	*-	*-	*-	*-	*-	*-
!!!system-decoration: [(s1,s2,s3,s4)]
!!!RDF**kern: > = above
!!!RDF**kern: < = below
!!!EED: Mateusz Mrugas
!!!EEV: 2021-01-19
!!!ENC: Tomasz Grochalski
!!!END: 2021-01-10
